symbols/web/screen_lock_landscape/materialsymbolsoutlined/screen_lock_landscape_wght700grad200fill1_48px.svg

<svg xmlns="http://www.w3.org/2000/svg" height="48" width="48"><path d="M19.55 31.95q-.65 0-1.075-.45-.425-.45-.425-1.1v-6.85q0-.65.45-1.1.45-.45 1.05-.45h.5v-2q0-1.65 1.15-2.8t2.8-1.15q1.65 0 2.8 1.15t1.15 2.8v2h.5q.6 0 1.05.45.45.45.45 1.1v6.9q0 .6-.475 1.05-.475.45-1.025.45ZM21.5 22h5v-2q0-.95-.75-1.65t-1.75-.7q-1 0-1.75.7T21.5 20ZM5.6 39q-1.85 0-3.2-1.375T1.05 34.45v-20.9q0-1.8 1.35-3.175Q3.75 9 5.6 9h36.8q1.85 0 3.2 1.375t1.35 3.175v20.9q0 1.8-1.35 3.175Q44.25 39 42.4 39Zm4.4-4.55h28v-20.9H10Z"/></svg>

<svg xmlns="http://www.w3.org/2000/svg" height="48" width="48"><path d="M19.55 31.95Q18.9 31.95 18.475 31.5Q18.05 31.05 18.05 30.4V23.55Q18.05 22.9 18.5 22.45Q18.95 22 19.55 22H20.05V20Q20.05 18.35 21.2 17.2Q22.35 16.05 24 16.05Q25.65 16.05 26.8 17.2Q27.95 18.35 27.95 20V22H28.45Q29.05 22 29.5 22.45Q29.95 22.9 29.95 23.55V30.45Q29.95 31.05 29.475 31.5Q29 31.95 28.45 31.95ZM21.5 22H26.5V20Q26.5 19.05 25.75 18.35Q25 17.65 24 17.65Q23 17.65 22.25 18.35Q21.5 19.05 21.5 20ZM5.6 39Q3.75 39 2.4 37.625Q1.05 36.25 1.05 34.45V13.55Q1.05 11.75 2.4 10.375Q3.75 9 5.6 9H42.4Q44.25 9 45.6 10.375Q46.95 11.75 46.95 13.55V34.45Q46.95 36.25 45.6 37.625Q44.25 39 42.4 39ZM10 34.45H38V13.55H10Z"/></svg>
